!!!id: bhatk3188s
!!!vol: 3
!!!page: 188
!!!sthayee: Jai itani binti
!!!raag: bihag
!!!taal: teentaal
!!!tempo: madhyalaya
**kern
!!data: // -  >RN,  -  S/  S  G  G  M/  G  G  >RN,  S/  >MG  M  P  P/
==1
dq
4B
2c
=
4c
4e
4e
4f
=
4e
4e
dq
4B
4c
=
fq
4e
4f
4g
4g
!!data: // >PS'  -  N  -/  >DP  P  >GM  >RG/  P  >PG  -  M/  G  -  >RN,  S/
==2
gq
2cc
2b
=
aq
4g
4g
eq
4f
dq
4e
=
4g
gq
2e
4f
=
2e
dq
4B
4c
!!data: // >RN,  S  R  R/  >RN,  S  >PG  M/  P  -  >PG  M/  G  >RS  -  N,/
==3
dq
4B
4c
4d
4d
=
dq
4B
4c
gq
4e
4f
=
2g
gq
4e
4f
=
4e
dq
2c
4B
==
*-
